usr/share/icons/biglinux-icons-material/22/actions/im-twitter.svg

<svg xmlns="http://www.w3.org/2000/svg" viewBox="0 0 22 22">
  <defs id="defs3051">
    <style type="text/css" id="current-color-scheme">
      .ColorScheme-Text {
        color:#363636;
      }
      </style>
  </defs>
 <path 
     style="fill:currentColor;fill-opacity:1;stroke:none" 
     d="M 14.078125 4.5 C 12.265325 4.5 10.794922 5.96874 10.794922 7.78125 C 10.794922 8.03843 10.823006 8.2891269 10.878906 8.5292969 C 8.1508662 8.3924669 5.7322013 7.0870925 4.1132812 5.1015625 C 3.8306713 5.5862225 3.6699219 6.14857 3.6699219 6.75 C 3.6699219 7.88867 4.2480863 8.8939019 5.1289062 9.4824219 C 4.5908063 9.4657219 4.0851281 9.3180356 3.6425781 9.0722656 C 3.6422781 9.0862656 3.6425781 9.0992812 3.6425781 9.1132812 C 3.6425781 10.703421 4.7738206 12.028468 6.2753906 12.330078 C 6.0000106 12.405178 5.7095563 12.445312 5.4101562 12.445312 C 5.1986662 12.445312 4.9934187 12.424719 4.7929688 12.386719 C 5.2107087 13.690539 6.422955 14.639646 7.859375 14.666016 C 6.735955 15.546356 5.3211331 16.070312 3.7832031 16.070312 C 3.5182331 16.070312 3.25675 16.055691 3 16.025391 C 4.45265 16.956581 6.17753 17.5 8.03125 17.5 C 14.06897 17.5 17.371094 12.499189 17.371094 8.1621094 C 17.371094 8.0198594 17.366328 7.8790413 17.361328 7.7382812 C 18.002738 7.2755412 18.55995 6.6972525 19 6.0390625 C 18.41141 6.3000625 17.779134 6.4753275 17.115234 6.5546875 C 17.792844 6.1485175 18.311541 5.5066344 18.556641 4.7402344 C 17.922361 5.1163744 17.220386 5.3899994 16.472656 5.5371094 C 15.873966 4.8992994 15.022235 4.5 14.078125 4.5 z "
     class="ColorScheme-Text"
     />
</svg>

<svg xmlns="http://www.w3.org/2000/svg" viewBox="0 0 22 22"><path d="M14.078 4.5a3.282 3.282 0 0 0-3.2 4.03 9.318 9.318 0 0 1-6.765-3.428A3.259 3.259 0 0 0 3.67 6.75a3.28 3.28 0 0 0 1.459 2.732 3.264 3.264 0 0 1-1.486-.41v.041a3.283 3.283 0 0 0 2.632 3.217 3.286 3.286 0 0 1-1.482.057 3.286 3.286 0 0 0 3.066 2.279 6.584 6.584 0 0 1-4.076 1.404c-.265 0-.526-.014-.783-.045A9.29 9.29 0 0 0 8.031 17.5c6.038 0 9.34-5 9.34-9.338 0-.142-.005-.283-.01-.424A6.672 6.672 0 0 0 19 6.04a6.56 6.56 0 0 1-1.885.516 3.286 3.286 0 0 0 1.442-1.815 6.569 6.569 0 0 1-2.084.797A3.276 3.276 0 0 0 14.078 4.5z" style="fill:currentColor;fill-opacity:1;stroke:none;color:#dedede"/></svg>
